X: 1325
T: Peter Street
R:Reel
N:Collected by J. O'Neill
B:O'Neill's 1325
Z:Transcribed by Trish O'Neil
M:C|
L:1/8
K:A
A2(3cBA eA (3cBA |eAaA gAfA|eA (3cBA eAfA|BEcE dEBE|
A2(3cBA eA (3cBA |eAaA gAfA|efec eaec|BABc"H"A2z2||
E2(3GFE BE (3GFE|BEdE cEBE|A2(3cBA eA (3cBA|eAaA gAfA|
efec agaf|efec agaf|ecag fedc|BAGF EF"D.C."GE|]


